X:299
T:Lomradh Eidar Ila's Uist
C:Joe Buchanan's Scottish Tome - Page 492.0
I:492 0
Z:Carl Allison
U:T=!tenuto!
R:Jig
L:1/8
M:6/8
K:C
W:1st Violin
%%vskip 0
"E7"E | "Am"(TA2 TA) (c2 d) | "G"(B2 A) (B2 d) | "Am"(TA2 TA) (e2 e) | "Dm"fed "E7"(e2 B) |
"Am"(Tc2 Tc) "Dm"(d2 c) | "E"(B2 A) "E7"(B2 d) | "Dm"fed "E7"(e2 B) | "Am"(c2 A) "E7"^G^FE |
"Am"(TA2 TA) (c2 d) | "G"(B2 A) (B2 d) | "Am"(TA2 TA) (e2 e) | "Dm"fed "E7"(e2 B) |
"Am"(Tc2 Tc) "Dm"(d2 c) | "E"(B2 A) "E7"(B2 d) | "Dm"fed "E7"(e2 B)  | "Am"A2 "E7"B "C"c2 "G"G |
"C"(TE2 TE) "G"(E2 D) | "C"(TE2 TE) "G"(E2 D) | "G7"(B2 A) "C"(G2 E) | "G"(D2 C) "D7"(D2 F) |
"C"(TE2 TE) "G"(E2 D) | "C"(TE2 TE) "Am"(c2 d) | "E"(B2 A) "E7"(^G2 B) | "Am"A3   A2 :|
%%vskip 5
W:2nd Violin
%%vskip 0
E | (C2 E) (E2 A) | (G2 ^F) (TG2 TB,) | (C2 E) (TC2 TC) | (D2 A) (^G2 E) |
(A, E) (F2 A) | (^G2 E) (TG2 TG) | (D2 F) (T^G2 TG) | (A2 C) (E2 E) |
(c2 e) (e2 a) | (g2 ^f) (g2 B) | (c2 e) (Tc2 Tc) | (d2 a) (^g2 e) |
(A2 e) (f2 a) | (^g2 e) (Tg2 Tg) | (d2 f) (^g2 g) | (c2 ^g) (a2 B) |
(Tc2 Tc) (c2 B) | (c2 e) (Ta2 Ta) | (g2 ^f) (e2 c) | G,3 F D |
(TC2 TC) (C2 B,) | (TC2 TC) (A2 B) | E3 (E2 D) | C3 C3 :|

